!!! OTL: Lo-He-He
!!! TEC: Copyright.2001, Chia-wei Lee
!! For Voice only
!! [Andante]
**kern	**silbe
*clefG2	*LXhinhua
*D:	*ping-ying
*M2/4	*
=7	=7
8a	Shan-
8b	Gao-
8dd	Shui^
8ee	Shen-
=8	=8
16ff#	Lo
16ee	He
[8ee	He
4ee	|
=9	=9
4.ee]	|
8ff#	|
=10	=10
8ff#	Lu\
8dd	Bu\
(16ee	Ai\
16dd	|
8b)	|
=11	=11
(4.a	Ping/
8b)	|
=12	=12
8b	Chang\
8e	Qi^
8a	Shan-
8b	Ge-
=13	=13
16ee	Lo
16dd	He
[8dd	He
4dd]	|
=14	=14
8b	Duo-
(16b	Kai-
16a)	|
[4a	Xin-
=15	=15
2a]	|
*-	*-
